source/images/icons/facebook.svg

<svg width="40" height="40" viewBox="0 0 40 40" fill="none" xmlns="http://www.w3.org/2000/svg"><circle cx="20" cy="20" r="20" fill="#fff" fill-opacity=".3"/><path d="M22.5 14H25v-3h-3.4c-2.8 0-3.6 1.7-3.6 4.2V17h-2v3h2v9h3v-9h3.3l.6-3H21v-1.5c0-.8.3-1.5 1.5-1.5z" fill="#444"/></svg>

<svg width="40" height="40" viewBox="0 0 40 40" fill="none" xmlns="http://www.w3.org/2000/svg">
<circle cx="20" cy="20" r="20" fill="white" fill-opacity="0.3"/>
<path d="M22.5 14H25V11H21.6C18.8 11 18 12.7 18 15.2V17H16V20H18V29H21V20H24.3L24.9 17H21V15.5C21 14.7 21.3 14 22.5 14Z" fill="#444444"/>
</svg>
